!!!OTL: 1986. Allgemeines Danklied.
!!!ARE: Europa, Mitteleuropa, Deutschland
!!!SCT: E1986
!!!YEM: Copyright 1995, estate of Helmut Schaffrath.
**kern
*ICvox
*M4/4
*met(c)
*k[f#]
*G:
!LO:TX:a:t=Heutige Choralform.
{4dd
=1
4dd
4dd
4ee
4ee
=2
2.dd;}
{4b
=3
4cc
4b
4a
4b/
=4
2a;
4g}
{4dd
=5
4dd
4dd
4ee
4ee
=6
2.dd;}
{4b
=7
4cc
4b
4a
4b/
=8
2a;
4g}
{4a
=9
4a
4a
4b/
4b/
=10
2.a;}
{4a
=11
4b
4dd
4dd
4cc#
=12
2.dd;}
{4dd
=13
4ee
4dd
4cc
4b
=14
2.cc;}
{4b
=15
4a
4b/
4a
4a
=16
2.g;}
==
!!!AGN: geistlich, Dank - Lied, Choral
!!!ONB: ESAC (Essen Associative Code) Database: ERK3
!!!AMT: simple quadruple
!!!AIN: vox
!!!EED: Helmut Schaffrath
!!!EEV: 1.0
!!!GTL: Geistliche Lieder. 2. Gottesglaube und Gottesverehrung in Liedern: Bitt-, Lob-, Dank- und Trostlieder, nebst einigen Lehrgesaengen. 
!!!URL-scan: https://rosdok.uni-rostock.de/mcrviewer/recordIdentifier/rosdok_ppn745177999/iview2/phys_0697.iview2?x=188.96815741118007&y=1045.1963357045315&scale=0.7014306698522891&rotation=0&layout=singlePageLayout
!!!ENC: Anna Maria Matuszewska
!!!EEV: 2025/10/01
*-
